!!!OTL: EIN LUSTGER MUSIKANTE MARSCHIERTE
!!!ARE: Europa, Mitteleuropa, Deutschland
!!!SCT: B0691
!!!YEM: Copyright 1995, estate of Helmut Schaffrath.
**kern
*ICvox
*Ivox
*M4/4
*k[f#c#g#]
*A:
{4e
=1
4.a
8a
4a
4b
=2
4a
4g#
4f#}
{4e
=3
4.a
8a
4a
4cc#
=4
2.b}
{4e
=5
2.a
4g#
=6
2f#
2b
=7
2a
2g#
=8
2a
4r}
{4e
=9
4.a
8a
4a
4b
=10
4a
4g#
4f#}
{4e
=11
4.a
8a
4a
4cc#
=12
2.b}
{4e
=13
2.a
4g#
=14
2f#
2b
=15
2a
2g#
=16
2a
4r}
{4e
=17
4.cc#
8cc#
4cc#
4cc#
=18
4dd
2dd}
{4cc#
=19
4.b
8b
4b
4b
=20
2.ee}
{4e
=21
2cc#
4cc#
4cc#
=22
2.dd}
{4cc#
=23
4.b
8b
4b
4b
=24
2.ee}
{4e
=25
4.a
8a
4a
4g#
=26
4f#
4dd
4cc#}
{4b
=27
2cc#
2b
=28
2a
4r}
{4e
=29
4.a
8a
4a
4g#
=30
4f#
4dd
4cc#}
{4b
=31
2cc#
2b
=32
2a
4r}
==
!!!AGN: Scherz - Lied
!!!ONB: ESAC (Essen Associative Code) Database: BOEHME
!!!AMT: simple quadruple
!!!AIN: vox
!!!EED: Helmut Schaffrath
!!!EEV: 1.0
*-
